build/img/landings/express-smm/banner-decor-mob.svg

<svg width="232" height="210" viewBox="0 0 232 210" fill="none" xmlns="http://www.w3.org/2000/svg">
<g clip-path="url(#clip0)">
<path d="M312.071 -52.4463V115.456L311.883 115.891L291.237 70.1011L256.864 106.699L252.215 56.6971L207.789 80.1584L219.623 31.3417L170.01 39.1019L197.059 -3.22647L147.605 -12.0119L186.924 -43.2578L170.36 -52.4463H312.071Z" stroke="black" stroke-width="7" stroke-linecap="round" stroke-linejoin="round"/>
<path d="M476.161 -12.0117L426.735 -3.22627L453.757 39.1021L404.143 31.3419L415.978 80.1586L371.58 56.6973L366.903 106.699L332.529 70.1013L312.071 115.457V-52.4461H170.36L143.012 -67.6086L190.328 -84.394L156.684 -121.694L206.895 -122.208L187.194 -168.401L234.866 -152.589L231.245 -202.674L271.158 -172.238L283.996 -220.783L311.883 -179.025L339.77 -220.783L352.609 -172.238L392.549 -202.674L388.9 -152.589L436.572 -168.401L416.871 -122.208L467.082 -121.694L433.462 -84.394L480.782 -67.6086L436.867 -43.2576L476.161 -12.0117Z" fill="#FFD400" stroke="black" stroke-width="7" stroke-linecap="round" stroke-linejoin="round"/>
<path d="M391.929 -42.917C391.929 1.29503 356.092 37.1387 311.888 37.1387C267.685 37.1387 231.852 1.29503 231.852 -42.917" stroke="#817878" stroke-width="7" stroke-linecap="round" stroke-linejoin="round"/>
<mask id="mask0" mask-type="alpha" maskUnits="userSpaceOnUse" x="217" y="-52" width="96" height="108">
<rect x="217.16" y="-51.7139" width="94.8559" height="107.037" fill="#C4C4C4"/>
</mask>
<g mask="url(#mask0)">
<path d="M391.929 -42.918C391.929 1.29401 356.092 37.1376 311.888 37.1376C267.685 37.1376 231.852 1.29401 231.852 -42.918" stroke="white" stroke-width="7" stroke-linecap="round" stroke-linejoin="round"/>
</g>
<path d="M312.074 115.445V172.585H87.0469V-52.4609H170.36L186.927 -43.2689L147.605 -12.0231L197.059 -3.24115L170.009 39.0873L219.626 31.3305L207.788 80.1437L252.214 56.6824L256.863 106.688L291.237 70.0899L311.883 115.876L312.074 115.445Z" stroke="white" stroke-width="7" stroke-linecap="round" stroke-linejoin="round"/>
<path d="M68.5765 191.095H105.539V154.125H68.5765V191.095Z" fill="#FF5050" stroke="black" stroke-width="7" stroke-linecap="round" stroke-linejoin="round"/>
<path d="M87.0477 6.49018V101.065L73.2641 136.012L59.2928 101.145L26.2982 119.067L37.9971 83.3625L1.21875 75.8733L33.1084 56.061L9.73146 26.6535L46.9164 31.9811L47.917 -5.56543L72.9409 22.4102L87.0477 6.49018Z" fill="#3092F7" stroke="black" stroke-width="7" stroke-linecap="round" stroke-linejoin="round"/>
<path d="M108.259 83.1716L120.149 118.796L87.0469 101.066V6.4904L97.8563 -5.69727L99.0446 31.8458L136.202 26.3027L112.988 55.818L145.013 75.4704L108.259 83.1716Z" stroke="white" stroke-width="7" stroke-linecap="round" stroke-linejoin="round"/>
</g>
<defs>
<clipPath id="clip0">
<rect width="482" height="432" fill="white" transform="translate(0 -222)"/>
</clipPath>
</defs>
</svg>

<svg width="232" height="210" fill="none" xmlns="http://www.w3.org/2000/svg"><g clip-path="url(#clip0)"><path d="M312.071-52.446v167.902l-.188.435-20.646-45.79-34.373 36.598-4.649-50.002-44.426 23.461 11.834-48.816-49.613 7.76 27.049-42.328-49.454-8.786 39.319-31.246-16.564-9.188h141.711z" stroke="#000" stroke-width="7" stroke-linecap="round" stroke-linejoin="round"/><path d="M476.161-12.012l-49.426 8.786 27.022 42.328-49.614-7.76 11.835 48.817-44.398-23.462-4.677 50.002-34.374-36.598-20.458 45.356V-52.446H170.36L143.012-67.61l47.316-16.785-33.644-37.3 50.211-.514-19.701-46.193 47.672 15.812-3.621-50.085 39.913 30.436 12.838-48.545 27.887 41.758 27.887-41.758 12.839 48.545 39.94-30.436-3.649 50.085 47.672-15.812-19.701 46.193 50.211.514-33.62 37.3 47.32 16.785-43.915 24.351 39.294 31.246z" fill="#FFD400" stroke="#000" stroke-width="7" stroke-linecap="round" stroke-linejoin="round"/><path d="M391.929-42.917c0 44.212-35.837 80.056-80.041 80.056-44.203 0-80.036-35.844-80.036-80.056" stroke="#817878" stroke-width="7" stroke-linecap="round" stroke-linejoin="round"/><mask id="a" maskUnits="userSpaceOnUse" x="217" y="-52" width="96" height="108"><path fill="#C4C4C4" d="M217.16-51.714h94.856V55.323H217.16z"/></mask><g mask="url(#a)"><path d="M391.929-42.918c0 44.212-35.837 80.056-80.041 80.056-44.203 0-80.036-35.844-80.036-80.056" stroke="#fff" stroke-width="7" stroke-linecap="round" stroke-linejoin="round"/></g><path d="M312.074 115.445v57.14H87.047V-52.461h83.313l16.567 9.192-39.322 31.246 49.454 8.782-27.05 42.328 49.617-7.757-11.838 48.814 44.426-23.462 4.649 50.006 34.374-36.598 20.646 45.786.191-.431z" stroke="#fff" stroke-width="7" stroke-linecap="round" stroke-linejoin="round"/><path d="M68.576 191.095h36.963v-36.97H68.576v36.97z" fill="#FF5050" stroke="#000" stroke-width="7" stroke-linecap="round" stroke-linejoin="round"/><path d="M87.048 6.49v94.575l-13.784 34.947-13.971-34.867-32.995 17.922 11.7-35.704-36.78-7.49 31.89-19.812L9.731 26.654l37.185 5.327 1.001-37.546L72.941 22.41 87.048 6.49z" fill="#3092F7" stroke="#000" stroke-width="7" stroke-linecap="round" stroke-linejoin="round"/><path d="M108.259 83.172l11.89 35.624-33.102-17.73V6.49l10.81-12.187 1.188 37.543 37.157-5.543-23.214 29.515 32.025 19.652-36.754 7.702z" stroke="#fff" stroke-width="7" stroke-linecap="round" stroke-linejoin="round"/></g><defs><clipPath id="clip0"><path fill="#fff" transform="translate(0 -222)" d="M0 0h482v432H0z"/></clipPath></defs></svg>
